X:228
T:Standish’s Quick March. JaW.228
M:6/8
L:1/8
Q:3/8=120
S:James Winder Ms, Lancashire, 1835-41
R:.Quickstep
O:England
A:Wyresdale,Lancashire
Z:vmp.Chris Partington, Aug 2004
K:C
gab|c’2g g^fg|e2c cBc|d2d def|f3 “cr”e2g|!
c’2g g^fg|e2c cBc|dag fed|c2c c2:|!
|:e|d2G GAB|c2c cBc|d2d def|f3 “cr”e2g|!
c’2g g^fg|e2c cBc|dag fed|c2c c2:|

